build/system/OpenInNewOutline.svg

<svg xmlns="http://www.w3.org/2000/svg" fill="none" viewBox="0 0 24 24" focusable="false"><path d="M0 0H24V24H0z"/><path fill="#74767B" fill-rule="evenodd" d="M19.3496 12.2234C19.7764 12.2234 20.0293 11.8806 20.0293 11.5193L19.9956 4.73645C20.0171 4.31921 19.6777 3.97986 19.2603 4.0011L12.5156 3.99927C12.1719 3.99927 11.8936 4.30371 11.8936 4.6687C11.8936 5.03369 12.1646 5.38159 12.4912 5.38159L17.6943 5.38306L9.99023 13.0874C9.73633 13.3412 9.73633 13.7528 9.99023 14.0066C10.2441 14.2605 10.6558 14.2605 10.9097 14.0066L18.6138 6.30225L18.6465 11.5193C18.6323 11.8729 18.9229 12.2234 19.3496 12.2234ZM7 4.01355L8.37158 4.00439C8.73193 4.00439 9.02539 4.29358 9.02539 4.65393C9.02539 5.01111 8.7373 5.30347 8.37988 5.30347L7 5.3125C6.06104 5.3125 5.2998 6.073 5.2998 7.01099L5.2998 17.0027C5.2998 17.9407 6.06104 18.7012 7 18.7012L17 18.7012C17.939 18.7012 18.7002 17.9407 18.7002 17.0027L18.7002 15.6542C18.7002 15.2953 18.9912 15.0043 19.3501 15.0043C19.709 15.0043 20 15.2953 20 15.6542L20 17.0027C20 18.6581 18.6567 20.0001 17 20.0001L7 20.0001C5.34326 20.0001 4 18.6581 4 17.0027L4 7.01099C4 5.35559 5.34326 4.01355 7 4.01355Z"/></svg>

<svg xmlns="http://www.w3.org/2000/svg" fill="none" viewBox="0 0 24 24" focusable="false"><path fill="#74767B" fill-rule="evenodd" d="M20.02 11.51c0 .37-.25.71-.68.71-.42 0-.71-.35-.7-.71l-.03-5.21L10.9 14c-.25.26-.66.26-.91 0a.64.64 0 0 1 0-.92l7.7-7.7h-5.2c-.33 0-.6-.35-.6-.72 0-.36.28-.67.62-.67l6.75.01c.41-.03.75.31.73.73zM7 4.01 8.37 4c.36 0 .65.29.65.65s-.29.65-.65.65L7 5.31c-.94 0-1.71.76-1.71 1.7V17c0 .94.77 1.7 1.71 1.7h10c.93 0 1.7-.76 1.7-1.7v-1.35c0-.36.29-.65.65-.65.35 0 .65.29.65.65V17c0 1.65-1.35 3-3 3H7c-1.66 0-3-1.35-3-3V7.01c0-1.66 1.34-3 3-3"/></svg>
